assets/Worried face/Flat/worried_face_flat.svg

<svg width="32" height="32" viewBox="0 0 32 32" fill="none" xmlns="http://www.w3.org/2000/svg">
<path d="M15.9989 29.9978C25.3333 29.9978 29.9978 23.7303 29.9978 15.9989C29.9978 8.26751 25.3333 2 15.9989 2C6.66443 2 2 8.26751 2 15.9989C2 23.7303 6.66443 29.9978 15.9989 29.9978Z" fill="#FFB02E"/>
<path d="M10.5 19C12.9853 19 15 16.9853 15 14.5C15 12.0147 12.9853 10 10.5 10C8.01472 10 6 12.0147 6 14.5C6 16.9853 8.01472 19 10.5 19Z" fill="white"/>
<path d="M21.5 19C23.9853 19 26 16.9853 26 14.5C26 12.0147 23.9853 10 21.5 10C19.0147 10 17 12.0147 17 14.5C17 16.9853 19.0147 19 21.5 19Z" fill="white"/>
<path d="M10.9932 5.58216C11.0386 5.30977 10.8546 5.05216 10.5822 5.00676C10.3098 4.96136 10.0522 5.14537 10.0068 5.41776C9.83668 6.4385 9.24358 7.07178 8.54334 7.46363C7.82754 7.86418 7.01513 7.99996 6.5 7.99996C6.22386 7.99996 6 8.22381 6 8.49996C6 8.7761 6.22386 8.99996 6.5 8.99996C7.15154 8.99996 8.13913 8.83574 9.03166 8.33629C9.93975 7.82813 10.7633 6.96141 10.9932 5.58216Z" fill="#402A32"/>
<path d="M14 15C14 16.1045 13.1046 17 12 17C10.8954 17 10 16.1045 10 15C10 13.8954 10.8954 13 12 13C13.1046 13 14 13.8954 14 15Z" fill="#402A32"/>
<path d="M22 15C22 16.1045 21.1046 17 20 17C18.8954 17 18 16.1045 18 15C18 13.8954 18.8954 13 20 13C21.1046 13 22 13.8954 22 15Z" fill="#402A32"/>
<path d="M21.4178 5.00676C21.1454 5.05216 20.9614 5.30977 21.0068 5.58216C21.2367 6.96141 22.0602 7.82813 22.9683 8.33629C23.8609 8.83574 24.8485 8.99996 25.5 8.99996C25.7761 8.99996 26 8.7761 26 8.49996C26 8.22381 25.7761 7.99996 25.5 7.99996C24.9849 7.99996 24.1725 7.86418 23.4567 7.46363C22.7564 7.07178 22.1633 6.4385 21.9932 5.41776C21.9478 5.14537 21.6902 4.96136 21.4178 5.00676Z" fill="#402A32"/>
<path d="M12.8944 25.4472C13.0659 25.1042 13.9954 24 16 24C18.0046 24 18.9341 25.1042 19.1056 25.4472C19.3526 25.9411 19.9532 26.1414 20.4472 25.8944C20.9412 25.6474 21.1414 25.0467 20.8944 24.5527C20.3993 23.5624 18.7954 22 16 22C13.2046 22 11.6007 23.5624 11.1056 24.5527C10.8586 25.0467 11.0588 25.6474 11.5528 25.8944C12.0468 26.1414 12.6474 25.9411 12.8944 25.4472Z" fill="#402A32"/>
</svg>

<svg xmlns="http://www.w3.org/2000/svg" width="32" height="32" fill="none"><path fill="#FFB02E" d="M15.999 29.998c9.334 0 13.999-6.268 13.999-14 0-7.73-4.665-13.998-14-13.998C6.665 2 2 8.268 2 15.999c0 7.731 4.664 13.999 13.999 13.999Z"/><path fill="#fff" d="M10.5 19a4.5 4.5 0 1 0 0-9 4.5 4.5 0 0 0 0 9ZM21.5 19a4.5 4.5 0 1 0 0-9 4.5 4.5 0 0 0 0 9Z"/><path fill="#402A32" d="M10.993 5.582a.5.5 0 1 0-.986-.164c-.17 1.02-.763 1.654-1.464 2.046C7.828 7.864 7.015 8 6.5 8a.5.5 0 1 0 0 1c.652 0 1.64-.164 2.532-.664.908-.508 1.731-1.375 1.961-2.754ZM14 15a2 2 0 1 1-4 0 2 2 0 0 1 4 0ZM22 15a2 2 0 1 1-4 0 2 2 0 0 1 4 0ZM21.418 5.007a.5.5 0 0 0-.411.575c.23 1.38 1.053 2.246 1.961 2.754.893.5 1.88.664 2.532.664a.5.5 0 0 0 0-1 4.437 4.437 0 0 1-2.043-.536c-.7-.392-1.294-1.026-1.464-2.046a.5.5 0 0 0-.575-.411ZM12.894 25.447C13.066 25.104 13.995 24 16 24s2.934 1.104 3.106 1.447a1 1 0 1 0 1.788-.894C20.4 23.563 18.795 22 16 22s-4.4 1.562-4.894 2.553a1 1 0 0 0 1.788.894Z"/></svg>
